X: 04098
T: WOODRUFF'S HORNPIPE
C: Bob McQuillen 29 Oct 78
B: Bob's Note Book 04 #98
R: hornpipe
Z: 2019 John Chambers <jc:trillian.mit.edu>
M: C
L: 1/8
K: Em
GA \
| Beeg edBA | GFGA BAGF | EDEF GAB2 | dBGB A2GA |
| Beeg edBA | GFGA BAGF | E2EF GABA | GEED E2 :|
|: ef \
| gfed efga | gfed edBc | d2dc BAGB | AGFE D2ef |
| gfed efga | gfed e2Bc | dedc BAGF | G2E2 E2 :|
%%begintext align
%% This tune is for Steve Woodruff;
%% I always enjoy playing music
%% with you, Steve!
%%endtext

%%sep 1 1 500

%%sep 1 1 500

